X:3
T: Hollow Poplar
M:C|
L:1/8
R:Reel
K:G
Bc|"G"d4 d2 Bc|d2B2 AGAB|"C"c4c2AB|c2B2 AGEG|
"G"DEGA Bdef|g2f2edBA|G2BG "D"AGF2|"G"G6:|]
|:Bc|"G"d4g4|g2f2e2d2|"D"fa-a2a2fg|a2f2edef|
"G"gfef gfef|"C"g2f2edBA|"G"G2BG "D"AGF2|"G"G6:|]

#include "LeftHeader.h"
%%footer 04/03/16 For use only by Roaring Jelly members
%%text Set 128 2016 NEFFA Québec
%%scale .85
$SmallLMargin
$SmallRMargin
